X: 55
T: Trip to Barking Mill
R: jig
M: 6/8
L: 1/8
Z: 2012 John Chambers <jc:trillian.mit.edu>
B: Saml. Ann & Peter Thompson "Twenty Four Country Dances for the Year 1791", London 1791, p.28 #1
N: To make the rhytm correct, you can make the initial pickup a triplet.
K: Bb
% - - - - - - - - - - - - - - - - - - - - - - - - -
F/G/A/ |\
BBB Bdf | ccc ceg | BBB Bdf | cAF F2F |\
BBB Bdf | ccc ceg | fdB cBc | BBB B2 :|
|: f |\
bbb bfd | ggg gec | eee ecA | ABc F2F |\
GAB ABc | def gab | fdB cBc | BBB B2 :|
% - - - - - - - - Dance description - - - - - - - -

